apps/web/public/icons/dropdown/notification.svg

<svg width="18" height="21" viewBox="0 0 18 21" fill="none" xmlns="http://www.w3.org/2000/svg">
<path fill-rule="evenodd" clip-rule="evenodd" d="M11 16.8C11 17.9598 10.1046 18.9 9 18.9C7.89544 18.9 6.99998 17.9598 6.99998 16.8H11ZM9 0C5.13 0 2.00002 3.75898 2.00002 8.40001V10.8045L0 16.8H5.00002C5.00002 19.1196 6.79087 21 9 21C11.2091 21 13 19.1196 13 16.8H18L16 10.8045V8.70448C16 4.725 13.79 1.08148 10.55 0.304516C10.047 0.137352 9.52653 0.0350951 9 0ZM2.82 14.7L3.89002 11.55L3.99998 11.1615V8.40001C3.99998 4.92448 6.24 2.10001 9 2.10001C9.36065 2.09936 9.72001 2.1452 10.07 2.2365C12.31 2.81398 14 5.57549 14 8.65201V11.1615L14.11 11.4975L15.18 14.7H2.82Z" fill="#DFDFDF"/>
</svg>

<svg xmlns="http://www.w3.org/2000/svg" width="18" height="21" fill="none" viewBox="0 0 18 21"><path fill="#dfdfdf" fill-rule="evenodd" d="M11 16.8c0 1.16-.895 2.1-2 2.1s-2-.94-2-2.1zM9 0C5.13 0 2 3.759 2 8.4v2.405L0 16.8h5C5 19.12 6.79 21 9 21s4-1.88 4-4.2h5l-2-5.995v-2.1c0-3.98-2.21-7.624-5.45-8.4A6.2 6.2 0 0 0 9 0M2.82 14.7l1.07-3.15.11-.389V8.4c0-3.476 2.24-6.3 5-6.3.36 0 .72.045 1.07.136 2.24.578 3.93 3.34 3.93 6.416v2.51l.11.335 1.07 3.203z" clip-rule="evenodd"/></svg>
